src/assets/flags/TRY.svg

<svg width="512" height="512" viewBox="0 0 512 512" fill="none" xmlns="http://www.w3.org/2000/svg"><mask id="a" style="mask-type:alpha" maskUnits="userSpaceOnUse" x="0" y="0" width="512" height="512" viewBox="0 0 512 512"><path d="M256 512c141.385 0 256-114.615 256-256S397.385 0 256 0 0 114.615 0 256s114.615 256 256 256z" fill="#fff"/></mask><g mask="url(#a)"><path d="M0 0h512v512H0V0z" fill="#D80027"/><path d="m245 209 21 29 34-11.1-21 29 21 28.9-34-11.1-21 29v-35.9l-34-11.1 34-11V209z" fill="#EEE"/><path d="M189.807 328.35a72.313 72.313 0 0 1-31.684-7.41 72.312 72.312 0 0 1-38.884-50.087 72.311 72.311 0 0 1 15.549-61.473 72.306 72.306 0 0 1 89.419-17.03 88.996 88.996 0 0 0-96.737-18.379 89.003 89.003 0 0 0-39.612 131.262 89.003 89.003 0 0 0 90.754 38.203 88.996 88.996 0 0 0 45.595-23.786 72.007 72.007 0 0 1-34.4 8.7z" fill="#EEE"/></g></svg>

<svg width="512" height="512" viewBox="0 0 512 512" fill="none" xmlns="http://www.w3.org/2000/svg">
  <mask id="mask0_511_50" style="mask-type:alpha" maskUnits="userSpaceOnUse" x="0" y="0" width="512" height="512">
    <path
      d="M256 512C397.385 512 512 397.385 512 256C512 114.615 397.385 0 256 0C114.615 0 0 114.615 0 256C0 397.385 114.615 512 256 512Z"
      fill="white" />
  </mask>
  <g mask="url(#mask0_511_50)">
    <path d="M0 0H512V512H0V0Z" fill="#D80027" />
    <path d="M245 209L266 238L300 226.9L279 255.9L300 284.8L266 273.7L245 302.7V266.8L211 255.7L245 244.7V209Z"
      fill="#EEEEEE" />
    <path
      d="M189.807 328.35C178.82 328.319 167.984 325.785 158.123 320.94C148.262 316.094 139.635 309.065 132.897 300.386C126.16 291.708 121.489 281.607 119.239 270.853C116.99 260.098 117.221 248.973 119.915 238.321C122.61 227.669 127.696 217.772 134.788 209.38C141.881 200.989 150.792 194.324 160.846 189.892C170.9 185.461 181.831 183.379 192.81 183.805C203.789 184.231 214.526 187.153 224.207 192.35C211.68 180.107 195.82 171.833 178.612 168.564C161.404 165.295 143.614 167.176 127.47 173.971C111.327 180.767 97.5471 192.175 87.8578 206.767C78.1684 221.358 73 238.484 73 256C73 273.516 78.1684 290.642 87.8578 305.233C97.5471 319.825 111.327 331.233 127.47 338.029C143.614 344.824 161.404 346.705 178.612 343.436C195.82 340.167 211.68 331.893 224.207 319.65C213.645 325.374 201.82 328.365 189.807 328.35V328.35Z"
      fill="#EEEEEE" />
  </g>
</svg>
